X:433
T:Tyrell's Pass
R:jig
C:Brendan Ring
Z:hn-jig-433
M:6/8
L:1/8
K:G
~B3 edB | edB AGE | B2e edB | edB ~A3 |
B2e edB | edB AGE | ABG AGE | DGF G3 :|
|: B2g ged | ged BAG | GBd g2d | edB ~A3 |
~B3 ged | ged BAG | ABG AGE | DGF G3 :|

